assets/Office building/Flat/office_building_flat.svg

<svg xmlns="http://www.w3.org/2000/svg" width="32" height="32" fill="none"><path fill="#9B9B9B" d="M2 30h4.032l9.945-2.775L25.922 30H30V9.3A2.3 2.3 0 0 0 27.7 7H4.3A2.3 2.3 0 0 0 2 9.3V30Z"/><path fill="#83CBFF" d="M27 14h-1c-.55 0-1-.45-1-1v-1c0-.55.45-1 1-1h1c.55 0 1 .45 1 1v1c0 .56-.45 1-1 1Zm1 4v-1c0-.55-.45-1-1-1h-1c-.55 0-1 .45-1 1v1c0 .55.45 1 1 1h1c.55 0 1-.44 1-1Zm0 5v-1c0-.55-.45-1-1-1h-1c-.55 0-1 .45-1 1v1c0 .55.45 1 1 1h1c.55 0 1-.44 1-1ZM7 22v1c0 .55-.45 1-1 1H5c-.55 0-1-.45-1-1v-1c0-.55.45-1 1-1h1c.55 0 1 .45 1 1ZM6 11H5c-.55 0-1 .45-1 1v1c0 .55.45 1 1 1h1c.55 0 1-.45 1-1v-1c0-.55-.45-1-1-1Zm0 5H5c-.55 0-1 .45-1 1v1c0 .55.45 1 1 1h1c.55 0 1-.45 1-1v-1c0-.55-.45-1-1-1Z"/><path fill="#D3D3D3" d="M26 30h-7.013l-3.016-1.73L12.956 30H6V4.46C6 3.1 7.1 2 8.46 2h15.08C24.9 2 26 3.1 26 4.46V30Z"/><path fill="#1C1C1C" d="M19 30h-6v-3.75c0-.69.56-1.25 1.25-1.25h3.5c.69 0 1.26.56 1.26 1.26V30H19Z"/><path fill="#83CBFF" d="M14.5 18h-3c-.27 0-.5-.22-.5-.5v-2.01c0-.27.22-.5.5-.5h3.01c.27 0 .5.22.5.5v2.01a.51.51 0 0 1-.51.5Zm6.5-.49V15.5c0-.27-.22-.5-.5-.5h-3c-.27 0-.5.22-.5.5v2.01c0 .27.22.5.5.5h3.01c.27-.01.49-.23.49-.5Zm-6 5V20.5c0-.27-.22-.5-.5-.5h-3c-.27 0-.5.22-.5.5v2.01c0 .27.22.5.5.5h3.01c.27-.01.49-.23.49-.5Zm6 0V20.5c0-.27-.22-.5-.5-.5h-3c-.27 0-.5.22-.5.5v2.01c0 .27.22.5.5.5h3.01c.27-.01.49-.23.49-.5Zm-6-15V5.5c0-.27-.22-.5-.5-.5h-3c-.27 0-.5.22-.5.5v2.01c0 .27.22.5.5.5h3.01c.27-.01.49-.23.49-.5Zm6 0V5.5c0-.27-.22-.5-.5-.5h-3c-.27 0-.5.22-.5.5v2.01c0 .27.22.5.5.5h3.01c.27-.01.49-.23.49-.5Zm-6 5V10.5c0-.27-.22-.5-.5-.5h-3c-.27 0-.5.22-.5.5v2.01c0 .27.22.5.5.5h3.01c.27-.01.49-.23.49-.5Zm6 0V10.5c0-.27-.22-.5-.5-.5h-3c-.27 0-.5.22-.5.5v2.01c0 .27.22.5.5.5h3.01c.27-.01.49-.23.49-.5Z"/></svg>

<svg width="32" height="32" viewBox="0 0 32 32" fill="none" xmlns="http://www.w3.org/2000/svg">
<path d="M2 30H6.0317L15.977 27.2248L25.9222 30H30V9.3C30 8.03 28.97 7 27.7 7H4.3C3.03 7 2 8.03 2 9.3V30Z" fill="#9B9B9B"/>
<path d="M27 14H26C25.45 14 25 13.55 25 13V12C25 11.45 25.45 11 26 11H27C27.55 11 28 11.45 28 12V13C28 13.56 27.55 14 27 14ZM28 18V17C28 16.45 27.55 16 27 16H26C25.45 16 25 16.45 25 17V18C25 18.55 25.45 19 26 19H27C27.55 19 28 18.56 28 18ZM28 23V22C28 21.45 27.55 21 27 21H26C25.45 21 25 21.45 25 22V23C25 23.55 25.45 24 26 24H27C27.55 24 28 23.56 28 23Z" fill="#83CBFF"/>
<path d="M7 22V23C7 23.55 6.55 24 6 24H5C4.45 24 4 23.55 4 23V22C4 21.45 4.45 21 5 21H6C6.55 21 7 21.45 7 22ZM6 11H5C4.45 11 4 11.45 4 12V13C4 13.55 4.45 14 5 14H6C6.55 14 7 13.55 7 13V12C7 11.45 6.55 11 6 11ZM6 16H5C4.45 16 4 16.45 4 17V18C4 18.55 4.45 19 5 19H6C6.55 19 7 18.55 7 18V17C7 16.45 6.55 16 6 16Z" fill="#83CBFF"/>
<path d="M26 30H18.9867L15.9711 28.2702L12.9556 30H6V4.46C6 3.1 7.1 2 8.46 2H23.54C24.9 2 26 3.1 26 4.46V30Z" fill="#D3D3D3"/>
<path d="M19 30H13V26.25C13 25.56 13.56 25 14.25 25H17.75C18.44 25 19.01 25.56 19.01 26.26V30H19Z" fill="#1C1C1C"/>
<path d="M14.5 18H11.5C11.23 18 11 17.78 11 17.5V15.49C11 15.22 11.22 14.99 11.5 14.99H14.51C14.78 14.99 15.01 15.21 15.01 15.49V17.5C15 17.78 14.78 18 14.5 18ZM21 17.51V15.5C21 15.23 20.78 15 20.5 15H17.5C17.23 15 17 15.22 17 15.5V17.51C17 17.78 17.22 18.01 17.5 18.01H20.51C20.78 18 21 17.78 21 17.51ZM15 22.51V20.5C15 20.23 14.78 20 14.5 20H11.5C11.23 20 11 20.22 11 20.5V22.51C11 22.78 11.22 23.01 11.5 23.01H14.51C14.78 23 15 22.78 15 22.51ZM21 22.51V20.5C21 20.23 20.78 20 20.5 20H17.5C17.23 20 17 20.22 17 20.5V22.51C17 22.78 17.22 23.01 17.5 23.01H20.51C20.78 23 21 22.78 21 22.51ZM15 7.50999V5.5C15 5.23 14.78 5 14.5 5H11.5C11.23 5 11 5.22 11 5.5V7.50999C11 7.77999 11.22 8.00999 11.5 8.00999H14.51C14.78 7.99999 15 7.77999 15 7.50999ZM21 7.50999V5.5C21 5.23 20.78 5 20.5 5H17.5C17.23 5 17 5.22 17 5.5V7.50999C17 7.77999 17.22 8.00999 17.5 8.00999H20.51C20.78 7.99999 21 7.77999 21 7.50999ZM15 12.51V10.5C15 10.23 14.78 10 14.5 10H11.5C11.23 10 11 10.22 11 10.5V12.51C11 12.78 11.22 13.01 11.5 13.01H14.51C14.78 13 15 12.78 15 12.51ZM21 12.51V10.5C21 10.23 20.78 10 20.5 10H17.5C17.23 10 17 10.22 17 10.5V12.51C17 12.78 17.22 13.01 17.5 13.01H20.51C20.78 13 21 12.78 21 12.51Z" fill="#83CBFF"/>
</svg>
